documentation/public/assets/images/aspect-ratios.svg

<svg width="672" height="168" viewBox="0 0 672 168" fill="none" xmlns="http://www.w3.org/2000/svg">
<rect width="672" height="167.333" fill="#F6F6F6"/>
<rect x="128.5" y="81.8334" width="63" height="35" stroke="#0F67F5"/>
<path d="M150.634 125.152V135.333H149.401V126.444H149.341L146.855 128.095V126.842L149.401 125.152H150.634ZM156.942 135.473C156.525 135.466 156.107 135.386 155.69 135.234C155.272 135.081 154.891 134.825 154.546 134.463C154.201 134.099 153.925 133.607 153.716 132.987C153.507 132.364 153.403 131.581 153.403 130.64C153.403 129.739 153.487 128.94 153.656 128.244C153.825 127.545 154.071 126.956 154.392 126.479C154.714 125.998 155.101 125.634 155.555 125.385C156.013 125.137 156.528 125.012 157.102 125.012C157.672 125.012 158.179 125.127 158.623 125.355C159.07 125.581 159.435 125.896 159.717 126.3C159.998 126.704 160.181 127.17 160.263 127.697H159.05C158.938 127.24 158.719 126.86 158.394 126.559C158.069 126.257 157.638 126.106 157.102 126.106C156.313 126.106 155.691 126.449 155.237 127.135C154.786 127.821 154.559 128.784 154.556 130.024H154.636C154.821 129.742 155.042 129.502 155.297 129.303C155.555 129.101 155.84 128.945 156.152 128.836C156.464 128.726 156.793 128.671 157.141 128.671C157.725 128.671 158.258 128.817 158.742 129.109C159.226 129.397 159.614 129.797 159.906 130.307C160.197 130.814 160.343 131.396 160.343 132.052C160.343 132.682 160.202 133.259 159.92 133.782C159.639 134.303 159.243 134.717 158.732 135.025C158.225 135.33 157.629 135.479 156.942 135.473ZM156.942 134.379C157.36 134.379 157.735 134.274 158.066 134.066C158.401 133.857 158.664 133.577 158.857 133.225C159.052 132.874 159.15 132.483 159.15 132.052C159.15 131.631 159.055 131.248 158.866 130.904C158.681 130.556 158.424 130.279 158.096 130.073C157.771 129.868 157.4 129.765 156.982 129.765C156.667 129.765 156.374 129.828 156.102 129.954C155.83 130.077 155.592 130.246 155.386 130.461C155.184 130.677 155.025 130.924 154.909 131.202C154.793 131.477 154.735 131.767 154.735 132.072C154.735 132.476 154.83 132.854 155.018 133.206C155.211 133.557 155.473 133.84 155.804 134.056C156.139 134.271 156.518 134.379 156.942 134.379ZM163.173 134.031C162.928 134.031 162.717 133.943 162.542 133.767C162.366 133.592 162.278 133.381 162.278 133.136C162.278 132.891 162.366 132.68 162.542 132.505C162.717 132.329 162.928 132.241 163.173 132.241C163.418 132.241 163.629 132.329 163.805 132.505C163.98 132.68 164.068 132.891 164.068 133.136C164.068 133.298 164.027 133.447 163.944 133.583C163.864 133.719 163.756 133.829 163.621 133.911C163.488 133.991 163.339 134.031 163.173 134.031ZM163.173 128.88C162.928 128.88 162.717 128.792 162.542 128.617C162.366 128.441 162.278 128.231 162.278 127.985C162.278 127.74 162.366 127.53 162.542 127.354C162.717 127.178 162.928 127.09 163.173 127.09C163.418 127.09 163.629 127.178 163.805 127.354C163.98 127.53 164.068 127.74 164.068 127.985C164.068 128.148 164.027 128.297 163.944 128.433C163.864 128.569 163.756 128.678 163.621 128.761C163.488 128.84 163.339 128.88 163.173 128.88ZM169.395 125.012C169.813 125.016 170.23 125.095 170.648 125.251C171.066 125.407 171.447 125.665 171.791 126.027C172.136 126.385 172.413 126.873 172.622 127.493C172.83 128.113 172.935 128.89 172.935 129.825C172.935 130.73 172.849 131.533 172.676 132.236C172.507 132.935 172.262 133.525 171.941 134.006C171.622 134.487 171.235 134.851 170.777 135.1C170.323 135.348 169.809 135.473 169.236 135.473C168.666 135.473 168.157 135.36 167.71 135.135C167.266 134.906 166.901 134.589 166.616 134.185C166.334 133.777 166.154 133.305 166.074 132.768H167.287C167.396 133.235 167.614 133.621 167.938 133.926C168.267 134.228 168.699 134.379 169.236 134.379C170.021 134.379 170.641 134.036 171.095 133.35C171.553 132.664 171.781 131.694 171.781 130.441H171.702C171.516 130.72 171.296 130.96 171.041 131.162C170.785 131.364 170.502 131.52 170.191 131.63C169.879 131.739 169.548 131.794 169.196 131.794C168.613 131.794 168.078 131.649 167.59 131.361C167.106 131.069 166.719 130.67 166.427 130.163C166.139 129.653 165.994 129.069 165.994 128.413C165.994 127.79 166.134 127.22 166.412 126.703C166.694 126.182 167.088 125.768 167.595 125.46C168.106 125.152 168.706 125.002 169.395 125.012ZM169.395 126.106C168.977 126.106 168.601 126.211 168.267 126.419C167.935 126.625 167.672 126.903 167.476 127.255C167.284 127.603 167.188 127.989 167.188 128.413C167.188 128.837 167.28 129.223 167.466 129.571C167.655 129.916 167.912 130.191 168.237 130.397C168.565 130.599 168.938 130.7 169.355 130.7C169.67 130.7 169.963 130.639 170.235 130.516C170.507 130.39 170.744 130.219 170.946 130.004C171.152 129.785 171.312 129.538 171.428 129.263C171.544 128.985 171.602 128.695 171.602 128.393C171.602 127.995 171.506 127.622 171.314 127.274C171.125 126.926 170.863 126.645 170.529 126.429C170.197 126.214 169.819 126.106 169.395 126.106Z" fill="#E8178A"/>
<rect x="216.5" y="75.1666" width="63" height="41.6667" stroke="#0F67F5"/>
<path d="M241.494 135.472C240.838 135.472 240.253 135.36 239.739 135.134C239.229 134.909 238.823 134.596 238.521 134.195C238.223 133.79 238.061 133.321 238.034 132.788H239.287C239.313 133.116 239.426 133.399 239.625 133.638C239.824 133.873 240.084 134.056 240.406 134.185C240.727 134.314 241.083 134.379 241.474 134.379C241.912 134.379 242.3 134.302 242.638 134.15C242.976 133.998 243.241 133.785 243.433 133.514C243.625 133.242 243.722 132.927 243.722 132.569C243.722 132.195 243.629 131.865 243.443 131.58C243.258 131.291 242.986 131.066 242.628 130.904C242.27 130.741 241.832 130.66 241.315 130.66H240.5V129.566H241.315C241.72 129.566 242.074 129.493 242.379 129.347C242.688 129.202 242.928 128.996 243.1 128.731C243.276 128.466 243.364 128.154 243.364 127.796C243.364 127.452 243.287 127.152 243.135 126.896C242.982 126.641 242.767 126.442 242.489 126.3C242.214 126.157 241.889 126.086 241.514 126.086C241.163 126.086 240.831 126.151 240.52 126.28C240.212 126.406 239.96 126.59 239.764 126.832C239.569 127.07 239.463 127.359 239.446 127.697H238.253C238.273 127.163 238.433 126.696 238.735 126.295C239.037 125.891 239.431 125.576 239.918 125.35C240.409 125.125 240.947 125.012 241.534 125.012C242.164 125.012 242.704 125.14 243.155 125.395C243.606 125.647 243.952 125.98 244.194 126.394C244.436 126.809 244.557 127.256 244.557 127.737C244.557 128.31 244.406 128.799 244.104 129.203C243.806 129.608 243.4 129.888 242.886 130.043V130.123C243.529 130.229 244.031 130.503 244.393 130.943C244.754 131.381 244.935 131.923 244.935 132.569C244.935 133.123 244.784 133.62 244.482 134.061C244.184 134.498 243.776 134.843 243.259 135.095C242.742 135.347 242.154 135.472 241.494 135.472ZM247.843 134.031C247.598 134.031 247.387 133.943 247.212 133.767C247.036 133.592 246.948 133.381 246.948 133.136C246.948 132.891 247.036 132.68 247.212 132.504C247.387 132.329 247.598 132.241 247.843 132.241C248.088 132.241 248.299 132.329 248.474 132.504C248.65 132.68 248.738 132.891 248.738 133.136C248.738 133.298 248.696 133.447 248.614 133.583C248.534 133.719 248.426 133.829 248.29 133.911C248.158 133.991 248.009 134.031 247.843 134.031ZM247.843 128.88C247.598 128.88 247.387 128.792 247.212 128.617C247.036 128.441 246.948 128.231 246.948 127.985C246.948 127.74 247.036 127.53 247.212 127.354C247.387 127.178 247.598 127.09 247.843 127.09C248.088 127.09 248.299 127.178 248.474 127.354C248.65 127.53 248.738 127.74 248.738 127.985C248.738 128.148 248.696 128.297 248.614 128.433C248.534 128.569 248.426 128.678 248.29 128.761C248.158 128.84 248.009 128.88 247.843 128.88ZM250.824 135.333V134.438L254.184 130.759C254.579 130.329 254.904 129.954 255.159 129.636C255.414 129.314 255.603 129.013 255.725 128.731C255.851 128.446 255.914 128.148 255.914 127.836C255.914 127.478 255.828 127.168 255.656 126.906C255.487 126.645 255.255 126.442 254.96 126.3C254.665 126.157 254.333 126.086 253.966 126.086C253.574 126.086 253.233 126.167 252.941 126.33C252.653 126.489 252.429 126.713 252.27 127.001C252.114 127.289 252.037 127.627 252.037 128.015H250.863C250.863 127.418 251.001 126.895 251.276 126.444C251.551 125.993 251.926 125.642 252.4 125.39C252.877 125.138 253.412 125.012 254.005 125.012C254.602 125.012 255.131 125.138 255.591 125.39C256.052 125.642 256.413 125.982 256.675 126.409C256.937 126.837 257.068 127.312 257.068 127.836C257.068 128.211 257 128.577 256.864 128.935C256.731 129.289 256.499 129.686 256.168 130.123C255.84 130.557 255.384 131.088 254.801 131.714L252.514 134.16V134.24H257.247V135.333H250.824Z" fill="#E8178A"/>
<rect x="304.5" y="69.8334" width="63" height="47" stroke="#0F67F5"/>
<path d="M325.815 133.245V132.231L330.29 125.152H331.026V126.723H330.528L327.148 132.072V132.152H333.173V133.245H325.815ZM330.608 135.333V132.937V132.465V125.152H331.781V135.333H330.608ZM335.911 134.031C335.666 134.031 335.456 133.943 335.28 133.767C335.104 133.592 335.017 133.381 335.017 133.136C335.017 132.891 335.104 132.68 335.28 132.505C335.456 132.329 335.666 132.241 335.911 132.241C336.157 132.241 336.367 132.329 336.543 132.505C336.718 132.68 336.806 132.891 336.806 133.136C336.806 133.298 336.765 133.447 336.682 133.583C336.602 133.719 336.495 133.829 336.359 133.911C336.226 133.991 336.077 134.031 335.911 134.031ZM335.911 128.88C335.666 128.88 335.456 128.792 335.28 128.617C335.104 128.441 335.017 128.231 335.017 127.985C335.017 127.74 335.104 127.53 335.28 127.354C335.456 127.178 335.666 127.09 335.911 127.09C336.157 127.09 336.367 127.178 336.543 127.354C336.718 127.53 336.806 127.74 336.806 127.985C336.806 128.148 336.765 128.297 336.682 128.433C336.602 128.569 336.495 128.678 336.359 128.761C336.226 128.84 336.077 128.88 335.911 128.88ZM342.332 135.473C341.676 135.473 341.091 135.36 340.577 135.135C340.067 134.909 339.661 134.596 339.359 134.195C339.061 133.791 338.898 133.322 338.872 132.788H340.125C340.151 133.116 340.264 133.399 340.463 133.638C340.662 133.873 340.922 134.056 341.243 134.185C341.565 134.314 341.921 134.379 342.312 134.379C342.75 134.379 343.138 134.303 343.476 134.15C343.814 133.998 344.079 133.786 344.271 133.514C344.463 133.242 344.559 132.927 344.559 132.569C344.559 132.195 344.467 131.865 344.281 131.58C344.095 131.291 343.824 131.066 343.466 130.904C343.108 130.741 342.67 130.66 342.153 130.66H341.338V129.566H342.153C342.558 129.566 342.912 129.493 343.217 129.348C343.525 129.202 343.766 128.996 343.938 128.731C344.114 128.466 344.202 128.154 344.202 127.796C344.202 127.452 344.125 127.152 343.973 126.897C343.82 126.641 343.605 126.443 343.327 126.3C343.051 126.157 342.727 126.086 342.352 126.086C342.001 126.086 341.669 126.151 341.358 126.28C341.05 126.406 340.798 126.59 340.602 126.832C340.407 127.071 340.3 127.359 340.284 127.697H339.091C339.111 127.163 339.271 126.696 339.573 126.295C339.875 125.891 340.269 125.576 340.756 125.35C341.247 125.125 341.785 125.012 342.372 125.012C343.002 125.012 343.542 125.14 343.993 125.395C344.443 125.647 344.79 125.98 345.032 126.394C345.274 126.809 345.395 127.256 345.395 127.737C345.395 128.31 345.244 128.799 344.942 129.203C344.644 129.608 344.238 129.888 343.724 130.044V130.123C344.367 130.229 344.869 130.503 345.231 130.943C345.592 131.381 345.773 131.923 345.773 132.569C345.773 133.123 345.622 133.62 345.32 134.061C345.022 134.498 344.614 134.843 344.097 135.095C343.58 135.347 342.992 135.473 342.332 135.473Z" fill="#E8178A"/>
<rect x="392.5" y="53.8334" width="63" height="63" stroke="#0F67F5"/>
<path d="M420.134 125.152V135.333H418.901V126.444H418.841L416.355 128.095V126.842L418.901 125.152H420.134ZM423.937 134.031C423.692 134.031 423.481 133.943 423.305 133.767C423.13 133.592 423.042 133.381 423.042 133.136C423.042 132.891 423.13 132.68 423.305 132.505C423.481 132.329 423.692 132.241 423.937 132.241C424.182 132.241 424.393 132.329 424.568 132.505C424.744 132.68 424.832 132.891 424.832 133.136C424.832 133.298 424.79 133.447 424.707 133.583C424.628 133.719 424.52 133.829 424.384 133.911C424.252 133.991 424.103 134.031 423.937 134.031ZM423.937 128.88C423.692 128.88 423.481 128.792 423.305 128.617C423.13 128.441 423.042 128.231 423.042 127.985C423.042 127.74 423.13 127.53 423.305 127.354C423.481 127.178 423.692 127.09 423.937 127.09C424.182 127.09 424.393 127.178 424.568 127.354C424.744 127.53 424.832 127.74 424.832 127.985C424.832 128.148 424.79 128.297 424.707 128.433C424.628 128.569 424.52 128.678 424.384 128.761C424.252 128.84 424.103 128.88 423.937 128.88ZM430.497 125.152V135.333H429.264V126.444H429.204L426.718 128.095V126.842L429.264 125.152H430.497Z" fill="#E8178A"/>
<rect x="480.5" y="32.5" width="63" height="84.3333" stroke="#0F67F5"/>
<path d="M505.494 135.473C504.838 135.473 504.253 135.36 503.739 135.135C503.229 134.909 502.823 134.596 502.521 134.195C502.223 133.791 502.061 133.322 502.034 132.788H503.287C503.313 133.116 503.426 133.399 503.625 133.638C503.824 133.873 504.084 134.056 504.406 134.185C504.727 134.314 505.083 134.379 505.474 134.379C505.912 134.379 506.3 134.303 506.638 134.15C506.976 133.998 507.241 133.786 507.433 133.514C507.625 133.242 507.722 132.927 507.722 132.569C507.722 132.195 507.629 131.865 507.443 131.58C507.258 131.291 506.986 131.066 506.628 130.904C506.27 130.741 505.832 130.66 505.315 130.66H504.5V129.566H505.315C505.72 129.566 506.074 129.493 506.379 129.348C506.688 129.202 506.928 128.996 507.1 128.731C507.276 128.466 507.364 128.154 507.364 127.796C507.364 127.452 507.287 127.152 507.135 126.897C506.982 126.641 506.767 126.443 506.489 126.3C506.214 126.157 505.889 126.086 505.514 126.086C505.163 126.086 504.831 126.151 504.52 126.28C504.212 126.406 503.96 126.59 503.764 126.832C503.569 127.071 503.463 127.359 503.446 127.697H502.253C502.273 127.163 502.433 126.696 502.735 126.295C503.037 125.891 503.431 125.576 503.918 125.35C504.409 125.125 504.947 125.012 505.534 125.012C506.164 125.012 506.704 125.14 507.155 125.395C507.606 125.647 507.952 125.98 508.194 126.394C508.436 126.809 508.557 127.256 508.557 127.737C508.557 128.31 508.406 128.799 508.104 129.203C507.806 129.608 507.4 129.888 506.886 130.044V130.123C507.529 130.229 508.031 130.503 508.393 130.943C508.754 131.381 508.935 131.923 508.935 132.569C508.935 133.123 508.784 133.62 508.482 134.061C508.184 134.498 507.776 134.843 507.259 135.095C506.742 135.347 506.154 135.473 505.494 135.473ZM511.843 134.031C511.598 134.031 511.387 133.943 511.212 133.767C511.036 133.592 510.948 133.381 510.948 133.136C510.948 132.891 511.036 132.68 511.212 132.505C511.387 132.329 511.598 132.241 511.843 132.241C512.088 132.241 512.299 132.329 512.474 132.505C512.65 132.68 512.738 132.891 512.738 133.136C512.738 133.298 512.696 133.447 512.614 133.583C512.534 133.719 512.426 133.829 512.29 133.911C512.158 133.991 512.009 134.031 511.843 134.031ZM511.843 128.88C511.598 128.88 511.387 128.792 511.212 128.617C511.036 128.441 510.948 128.231 510.948 127.985C510.948 127.74 511.036 127.53 511.212 127.354C511.387 127.178 511.598 127.09 511.843 127.09C512.088 127.09 512.299 127.178 512.474 127.354C512.65 127.53 512.738 127.74 512.738 127.985C512.738 128.148 512.696 128.297 512.614 128.433C512.534 128.569 512.426 128.678 512.29 128.761C512.158 128.84 512.009 128.88 511.843 128.88ZM514.585 133.245V132.231L519.059 125.152H519.795V126.723H519.298L515.917 132.072V132.152H521.943V133.245H514.585ZM519.377 135.333V132.937V132.465V125.152H520.551V135.333H519.377Z" fill="#E8178A"/>
</svg>

<svg width="672" height="168" fill="none" xmlns="http://www.w3.org/2000/svg"><path fill="#F6F6F6" d="M0 0h672v167.33H0z"/><path stroke="#0F67F5" d="M128.5 81.83h63v35h-63z"/><path d="M150.63 125.15v10.18h-1.23v-8.89h-.06l-2.49 1.66v-1.26l2.55-1.69h1.23Zm6.31 10.32a3.5 3.5 0 0 1-1.25-.24 3 3 0 0 1-1.14-.77 3.94 3.94 0 0 1-.83-1.47 10.2 10.2 0 0 1-.06-4.74c.16-.7.41-1.3.73-1.77.32-.48.71-.85 1.17-1.1a3.2 3.2 0 0 1 1.54-.37 3.06 3.06 0 0 1 3.16 2.69h-1.21a2.24 2.24 0 0 0-.66-1.14c-.32-.3-.75-.45-1.29-.45-.79 0-1.4.34-1.86 1.03a5.26 5.26 0 0 0-.68 2.88h.08a2.98 2.98 0 0 1 2.5-1.35c.59 0 1.12.15 1.6.44a3.29 3.29 0 0 1 1.6 2.94c0 .63-.14 1.2-.42 1.73a3.2 3.2 0 0 1-2.98 1.7Zm0-1.1c.42 0 .8-.1 1.13-.3a2.37 2.37 0 0 0 1.08-2.01 2.35 2.35 0 0 0-1.05-1.99c-.33-.2-.7-.3-1.12-.3-.31 0-.6.06-.88.18a2.29 2.29 0 0 0-1.2 1.25 2.37 2.37 0 0 0 .9 2.85c.34.22.72.33 1.14.33Zm6.23-.34a.86.86 0 0 1-.63-.26.86.86 0 0 1-.26-.63c0-.25.09-.46.26-.63a.86.86 0 0 1 .63-.27.9.9 0 0 1 .64.26c.17.18.26.4.26.64 0 .16-.04.3-.13.44a.93.93 0 0 1-.32.33.85.85 0 0 1-.45.12Zm0-5.15a.86.86 0 0 1-.63-.26.86.86 0 0 1-.26-.64.9.9 0 0 1 .26-.63.86.86 0 0 1 .63-.26.9.9 0 0 1 .64.26.9.9 0 0 1 .26.64c0 .16-.04.3-.13.44a.94.94 0 0 1-.32.33.86.86 0 0 1-.45.12Zm6.23-3.87c.41 0 .83.08 1.25.24.42.16.8.42 1.14.78.35.36.62.84.83 1.46a10.13 10.13 0 0 1 .05 4.74 5.5 5.5 0 0 1-.73 1.78 3.16 3.16 0 0 1-2.7 1.47c-.57 0-1.08-.12-1.53-.34a3 3 0 0 1-1.64-2.37h1.22c.1.47.32.85.65 1.16.33.3.76.45 1.3.45.78 0 1.4-.34 1.85-1.03.46-.69.7-1.66.7-2.9h-.09a3.12 3.12 0 0 1-1.5 1.18 3.1 3.1 0 0 1-3.76-1.47 3.5 3.5 0 0 1-.45-1.75c0-.62.14-1.19.42-1.7a3.23 3.23 0 0 1 2.99-1.7Zm0 1.1c-.42 0-.8.1-1.13.3-.34.22-.6.5-.8.84a2.4 2.4 0 0 0-.28 1.16c0 .43.09.81.28 1.16a2.09 2.09 0 0 0 1.89 1.13 2.1 2.1 0 0 0 1.59-.7c.2-.22.36-.46.48-.74a2.28 2.28 0 0 0-.11-1.99 2.3 2.3 0 0 0-.8-.84 2.04 2.04 0 0 0-1.13-.32Z" fill="#E8178A"/><path stroke="#0F67F5" d="M216.5 75.17h63v41.67h-63z"/><path d="M241.5 135.47c-.66 0-1.25-.11-1.76-.34a3 3 0 0 1-1.22-.94c-.3-.4-.46-.87-.49-1.4h1.26c.02.33.14.6.34.85.2.23.45.42.78.55a2.98 2.98 0 0 0 2.23-.04c.34-.15.6-.37.8-.64.19-.27.28-.58.28-.94a1.77 1.77 0 0 0-1.1-1.67 3.14 3.14 0 0 0-1.3-.24h-.82v-1.1h.81c.41 0 .76-.07 1.07-.21a1.65 1.65 0 0 0 .99-1.55c0-.35-.08-.65-.24-.9a1.57 1.57 0 0 0-.64-.6 2.57 2.57 0 0 0-1.97-.02c-.3.13-.56.31-.76.55-.2.24-.3.53-.31.87h-1.2c.02-.54.18-1 .49-1.4.3-.4.7-.72 1.18-.95a3.83 3.83 0 0 1 3.24.05 2.7 2.7 0 0 1 1.4 2.34 2.32 2.32 0 0 1-1.67 2.3v.08c.64.1 1.14.38 1.5.82.36.44.55.98.55 1.63 0 .55-.16 1.05-.46 1.5-.3.43-.7.77-1.22 1.03a4 4 0 0 1-1.77.37Zm6.34-1.44a.86.86 0 0 1-.63-.26.86.86 0 0 1-.26-.63.9.9 0 0 1 .26-.64.86.86 0 0 1 .63-.26c.25 0 .46.09.63.26.18.18.27.4.27.64 0 .16-.04.3-.13.44a.93.93 0 0 1-.32.33.85.85 0 0 1-.45.12Zm0-5.15a.86.86 0 0 1-.63-.26.86.86 0 0 1-.26-.64.9.9 0 0 1 .26-.63.86.86 0 0 1 .63-.26c.25 0 .46.09.63.26a.87.87 0 0 1 .14 1.08.93.93 0 0 1-.32.33.85.85 0 0 1-.45.12Zm2.98 6.45v-.9l3.36-3.67c.4-.43.72-.8.98-1.12.25-.33.44-.63.56-.9.13-.3.2-.6.2-.9a1.66 1.66 0 0 0-.96-1.54c-.3-.14-.63-.21-1-.21-.39 0-.73.08-1.02.24-.29.16-.51.38-.67.67a2.1 2.1 0 0 0-.23 1.01h-1.18a2.87 2.87 0 0 1 1.54-2.62 3.38 3.38 0 0 1 1.6-.38 3.02 3.02 0 0 1 2.68 1.4c.26.43.39.9.39 1.43 0 .37-.07.74-.2 1.1a5.1 5.1 0 0 1-.7 1.18c-.33.44-.79.97-1.37 1.6l-2.29 2.44v.08h4.74v1.1h-6.43Z" fill="#E8178A"/><path stroke="#0F67F5" d="M304.5 69.83h63v47h-63z"/><path d="M325.81 133.25v-1.02l4.48-7.08h.74v1.57h-.5l-3.38 5.35v.08h6.02v1.1h-7.36Zm4.8 2.08v-10.17h1.17v10.17h-1.17Zm5.3-1.3a.86.86 0 0 1-.63-.26.86.86 0 0 1-.26-.63c0-.25.08-.46.26-.63a.86.86 0 0 1 .63-.27c.25 0 .46.09.63.26.18.18.27.4.27.64 0 .16-.05.3-.13.44a.92.92 0 0 1-.32.33.85.85 0 0 1-.45.12Zm0-5.15a.86.86 0 0 1-.63-.26.86.86 0 0 1-.26-.64c0-.24.08-.45.26-.63a.86.86 0 0 1 .63-.26c.25 0 .46.09.63.26a.87.87 0 0 1 .14 1.08.93.93 0 0 1-.32.33.86.86 0 0 1-.45.12Zm6.42 6.6a4.4 4.4 0 0 1-1.75-.34 3.02 3.02 0 0 1-1.22-.94c-.3-.4-.46-.88-.49-1.41h1.25c.03.33.14.6.34.85.2.23.46.42.78.55a3.04 3.04 0 0 0 2.24-.04c.33-.15.6-.36.8-.64a1.82 1.82 0 0 0 0-1.93 1.84 1.84 0 0 0-.81-.68c-.36-.16-.8-.24-1.32-.24h-.81v-1.1h.81c.4 0 .76-.07 1.07-.21a1.65 1.65 0 0 0 .99-1.55c0-.35-.08-.65-.24-.9a1.57 1.57 0 0 0-.64-.6 2.57 2.57 0 0 0-1.97-.02c-.31.13-.56.31-.76.55-.2.24-.3.53-.32.87h-1.19c.02-.54.18-1 .48-1.4.3-.4.7-.72 1.19-.95a3.83 3.83 0 0 1 3.23.05 2.62 2.62 0 0 1 1.4 2.34 2.29 2.29 0 0 1-1.67 2.3v.08a2.33 2.33 0 0 1 2.05 2.45c0 .55-.15 1.05-.45 1.5-.3.43-.7.77-1.22 1.03a4 4 0 0 1-1.77.37Z" fill="#E8178A"/><path stroke="#0F67F5" d="M392.5 53.83h63v63h-63z"/><path d="M420.13 125.15v10.18h-1.23v-8.89h-.06l-2.48 1.66v-1.26l2.54-1.69h1.23Zm3.8 8.88a.86.86 0 0 1-.63-.26.86.86 0 0 1-.26-.63c0-.25.09-.46.26-.63a.86.86 0 0 1 .64-.27.9.9 0 0 1 .89.9.91.91 0 0 1-.45.78.85.85 0 0 1-.44.11Zm0-5.15a.87.87 0 0 1-.63-.26.86.86 0 0 1-.26-.64.9.9 0 0 1 .26-.63.86.86 0 0 1 .64-.26.9.9 0 0 1 .89.9.92.92 0 0 1-.45.78.85.85 0 0 1-.44.11Zm6.57-3.73v10.18h-1.24v-8.89h-.06l-2.48 1.66v-1.26l2.54-1.69h1.24Z" fill="#E8178A"/><path stroke="#0F67F5" d="M480.5 32.5h63v84.33h-63z"/><path d="M505.5 135.47c-.66 0-1.25-.11-1.76-.34a3.02 3.02 0 0 1-1.22-.94c-.3-.4-.46-.87-.49-1.4h1.26c.02.33.14.6.33.85a2 2 0 0 0 .79.55 2.98 2.98 0 0 0 2.23-.04c.34-.15.6-.36.8-.64.19-.27.28-.58.28-.94a1.77 1.77 0 0 0-1.1-1.67 3.14 3.14 0 0 0-1.3-.24h-.82v-1.1h.81c.41 0 .76-.07 1.07-.21a1.65 1.65 0 0 0 .98-1.55c0-.35-.07-.65-.23-.9a1.57 1.57 0 0 0-.64-.6 2.57 2.57 0 0 0-1.97-.02c-.3.13-.56.31-.76.55-.2.24-.3.53-.31.87h-1.2c.02-.54.18-1 .49-1.4.3-.4.7-.72 1.18-.95a3.83 3.83 0 0 1 3.23.05 2.7 2.7 0 0 1 1.4 2.34 2.29 2.29 0 0 1-1.67 2.3v.08c.65.1 1.15.38 1.51.82.36.44.55.98.55 1.63 0 .55-.16 1.05-.46 1.5-.3.43-.7.77-1.22 1.03a4 4 0 0 1-1.77.37Zm6.34-1.44a.86.86 0 0 1-.63-.26.86.86 0 0 1-.26-.63c0-.25.09-.46.26-.63a.86.86 0 0 1 .63-.27c.25 0 .46.09.63.26.18.18.27.4.27.64 0 .16-.04.3-.13.44a.93.93 0 0 1-.32.33.85.85 0 0 1-.45.12Zm0-5.15a.86.86 0 0 1-.63-.26.86.86 0 0 1-.26-.64.9.9 0 0 1 .26-.63.86.86 0 0 1 .63-.26c.25 0 .46.09.63.26a.87.87 0 0 1 .14 1.08.93.93 0 0 1-.32.33.85.85 0 0 1-.45.12Zm2.75 4.37v-1.02l4.47-7.08h.74v1.57h-.5l-3.38 5.35v.08h6.02v1.1h-7.36Zm4.79 2.08v-10.17h1.17v10.17h-1.17Z" fill="#E8178A"/></svg>
